img/Instagram.svg

<svg width="24" height="24" viewBox="0 0 24 24" fill="none" xmlns="http://www.w3.org/2000/svg">
<g opacity="0.6">
<path d="M21.9804 7.88005C21.9336 6.81738 21.7617 6.0868 21.5156 5.45374C21.2616 4.78176 20.8709 4.18014 20.359 3.68002C19.8589 3.1721 19.2533 2.77743 18.5891 2.52745C17.9524 2.28127 17.2256 2.10943 16.163 2.06257C15.0923 2.01175 14.7525 2 12.0371 2C9.32172 2 8.98185 2.01175 7.9152 2.05861C6.85253 2.10546 6.12195 2.27746 5.48904 2.52348C4.81692 2.77743 4.2153 3.16814 3.71517 3.68002C3.20726 4.18014 2.81274 4.78573 2.5626 5.44992C2.31643 6.0868 2.14458 6.81341 2.09773 7.87609C2.04691 8.9467 2.03516 9.28658 2.03516 12.002C2.03516 14.7173 2.04691 15.0572 2.09376 16.1239C2.14061 17.1865 2.31261 17.9171 2.55879 18.5502C2.81274 19.2221 3.20726 19.8238 3.71517 20.3239C4.2153 20.8318 4.82088 21.2265 5.48507 21.4765C6.12195 21.7226 6.84856 21.8945 7.91139 21.9413C8.97788 21.9883 9.31791 21.9999 12.0333 21.9999C14.7486 21.9999 15.0885 21.9883 16.1552 21.9413C17.2178 21.8945 17.9484 21.7226 18.5813 21.4765C19.9254 20.9568 20.9881 19.8941 21.5078 18.5502C21.7538 17.9133 21.9258 17.1865 21.9726 16.1239C22.0195 15.0572 22.0312 14.7173 22.0312 12.002C22.0312 9.28658 22.0273 8.9467 21.9804 7.88005ZM20.1794 16.0457C20.1364 17.0225 19.9723 17.5499 19.8355 17.9015C19.4995 18.7728 18.808 19.4643 17.9367 19.8004C17.585 19.9372 17.0538 20.1012 16.0808 20.1441C15.026 20.1911 14.7096 20.2027 12.0411 20.2027C9.37255 20.2027 9.0522 20.1911 8.00113 20.1441C7.02437 20.1012 6.49693 19.9372 6.1453 19.8004C5.71171 19.6402 5.31704 19.3862 4.9967 19.0541C4.6646 18.7298 4.41065 18.3391 4.2504 17.9055C4.11365 17.5539 3.94959 17.0225 3.9067 16.0497C3.8597 14.9948 3.8481 14.6783 3.8481 12.0097C3.8481 9.34122 3.8597 9.02087 3.9067 7.96995C3.94959 6.99319 4.11365 6.46575 4.2504 6.11412C4.41065 5.68038 4.6646 5.28586 5.00067 4.96536C5.32483 4.63327 5.71553 4.37931 6.14927 4.21921C6.5009 4.08247 7.03231 3.9184 8.00509 3.87537C9.05999 3.82851 9.37652 3.81676 12.0449 3.81676C14.7174 3.81676 15.0337 3.82851 16.0848 3.87537C17.0616 3.9184 17.589 4.08247 17.9406 4.21921C18.3742 4.37931 18.7689 4.63327 19.0892 4.96536C19.4213 5.28967 19.6753 5.68038 19.8355 6.11412C19.9723 6.46575 20.1364 6.99701 20.1794 7.96995C20.2262 9.02484 20.238 9.34122 20.238 12.0097C20.238 14.6783 20.2262 14.9908 20.1794 16.0457Z" fill="white"/>
<path d="M12.0371 6.86423C9.20069 6.86423 6.89937 9.1654 6.89937 12.002C6.89937 14.8385 9.20069 17.1397 12.0371 17.1397C14.8736 17.1397 17.1748 14.8385 17.1748 12.002C17.1748 9.1654 14.8736 6.86423 12.0371 6.86423ZM12.0371 15.3347C10.197 15.3347 8.70438 13.8422 8.70438 12.002C8.70438 10.1617 10.197 8.66924 12.0371 8.66924C13.8774 8.66924 15.3698 10.1617 15.3698 12.002C15.3698 13.8422 13.8774 15.3347 12.0371 15.3347Z" fill="white"/>
<path d="M18.5776 6.6611C18.5776 7.32346 18.0405 7.86053 17.378 7.86053C16.7156 7.86053 16.1785 7.32346 16.1785 6.6611C16.1785 5.99858 16.7156 5.46167 17.378 5.46167C18.0405 5.46167 18.5776 5.99858 18.5776 6.6611Z" fill="white"/>
</g>
</svg>

<svg width="24" height="24" fill="none" xmlns="http://www.w3.org/2000/svg"><g opacity=".6" fill="#fff"><path d="M21.98 7.88c-.046-1.063-.218-1.793-.464-2.426a4.88 4.88 0 00-1.157-1.774 4.922 4.922 0 00-1.77-1.153c-.637-.246-1.363-.418-2.426-.464-1.07-.051-1.41-.063-4.126-.063-2.715 0-3.055.012-4.122.059-1.062.046-1.793.218-2.426.464A4.88 4.88 0 003.715 3.68a4.924 4.924 0 00-1.152 1.77c-.247.637-.418 1.363-.465 2.426-.051 1.07-.063 1.41-.063 4.126 0 2.715.012 3.055.059 4.122.047 1.063.219 1.793.465 2.426a4.932 4.932 0 001.156 1.774 4.92 4.92 0 001.77 1.152c.637.247 1.364.419 2.426.465 1.067.047 1.407.059 4.122.059 2.716 0 3.056-.012 4.122-.059 1.063-.046 1.793-.218 2.426-.464a5.116 5.116 0 002.927-2.927c.246-.637.418-1.364.465-2.426.047-1.067.058-1.407.058-4.122s-.004-3.055-.05-4.122zm-1.8 8.166c-.044.977-.208 1.504-.345 1.855a3.317 3.317 0 01-1.898 1.9c-.352.136-.883.3-1.856.343-1.055.047-1.371.059-4.04.059-2.668 0-2.989-.012-4.04-.059-.977-.043-1.504-.207-1.856-.344a3.077 3.077 0 01-1.148-.746 3.11 3.11 0 01-.747-1.148c-.136-.352-.3-.883-.343-1.856-.047-1.055-.059-1.372-.059-4.04 0-2.669.012-2.99.059-4.04.043-.977.207-1.504.343-1.856A3.04 3.04 0 015 4.965a3.105 3.105 0 011.15-.746c.35-.137.882-.3 1.855-.344 1.055-.046 1.372-.058 4.04-.058 2.672 0 2.989.012 4.04.058.977.043 1.504.207 1.856.344.433.16.828.414 1.148.746.332.325.586.715.747 1.15.136.35.3.882.343 1.855.047 1.055.059 1.371.059 4.04 0 2.668-.012 2.98-.059 4.036z"/><path d="M12.037 6.864A5.139 5.139 0 006.9 12.002a5.139 5.139 0 105.138-5.138zm0 8.47a3.333 3.333 0 11.001-6.666 3.333 3.333 0 010 6.667zm6.541-8.673a1.2 1.2 0 11-2.4 0 1.2 1.2 0 012.4 0z"/></g></svg>
